src/dark/hiso font dark_o.svg

<svg xmlns="http://www.w3.org/2000/svg" width="90" height="126" viewBox="0 0 90 126"><path fill="#000101" d="M36 9l-36 18v72l36 18 36-18v-72l-36-18zm3 76.85v-3.35l29.646 14.823-3.346 1.677-26.3-13.15zm-36 11.3v-68.3l33-16.5 32.646 16.327-32.646 16.323v68.65l-33-16.5z"/></svg>

<svg xmlns="http://www.w3.org/2000/svg" width="90" height="126"><path fill="#000101" d="M36 9L0 27v72l36 18 36-18V27L36 9zm3 76.85V82.5l29.646 14.823L65.3 99 39 85.85zM3 97.15v-68.3l33-16.5 32.646 16.327L36 45v68.65L3 97.15z"/></svg>
